icons/feed-trophy-16.svg

<svg xmlns="http://www.w3.org/2000/svg" width="16" height="16" viewBox="0 0 16 16"><path d="M11 5h1v1.146a1 1 0 01-.629.928L11 7.223V5zM5 7.223l-.371-.149A1 1 0 014 6.146V5h1v2.223z"/><path d="M8 16A8 8 0 118 0a8 8 0 010 16zM3 5v1.146a2 2 0 001.257 1.858l.865.346a3.005 3.005 0 002.294 2.093C7.22 11.404 6.658 12 5.502 12H5.5a.5.5 0 000 1h5a.5.5 0 000-1c-1.158 0-1.72-.595-1.916-1.557a3.005 3.005 0 002.294-2.094l.865-.346A2 2 0 0013 6.146V5a1 1 0 00-1-1H4a1 1 0 00-1 1z"/></svg>

<svg xmlns="http://www.w3.org/2000/svg" width="16" height="16" viewBox="0 0 16 16">
  <defs/>
  <path d="M11,5 L12,5 L12,6.146 A1 1 0 0 1 11.371,7.074 L11,7.223 L11,5 Z M5,7.223 L4.629,7.074 A1 1 0 0 1 4,6.146 L4,5 L5,5 L5,7.223 Z"/>
  <path d="M8,16 C3.582,16 0,12.418 0,8 C0,3.582 3.582,0 8,0 C12.418,0 16,3.582 16,8 C16,12.418 12.418,16 8,16 Z M3,5 L3,6.146 C3,6.964 3.497,7.7 4.257,8.004 L5.122,8.35 C5.439,9.419 6.322,10.225 7.416,10.443 C7.22,11.404 6.658,12 5.502,12 L5.5,12 C5.224,12 5,12.224 5,12.5 C5,12.776 5.224,13 5.5,13 L10.5,13 C10.776,13 11,12.776 11,12.5 C11,12.224 10.776,12 10.5,12 C9.342,12 8.78,11.405 8.584,10.443 C9.678,10.225 10.561,9.419 10.878,8.349 L11.743,8.003 C12.502,7.699 13,6.964 13,6.146 L13,5 C13,4.448 12.552,4 12,4 L4,4 C3.448,4 3,4.448 3,5 Z"/>
</svg>
